Adwaita++/actions/22/view-list-details.svg

<svg xmlns="http://www.w3.org/2000/svg" width="22" height="22" viewBox="0 0 22 22">
 <defs>
  <style id="current-color-scheme" type="text/css">
   .ColorScheme-Text { color:#444444; } .ColorScheme-Highlight { color:#4285f4; }
  </style>
 </defs>
 <path style="fill:currentColor" class="ColorScheme-Text" d="M 1 3.0039062 L 1 5.0039062 L 3 5.0039062 L 3 3.0039062 L 1 3.0039062 z M 5 3.0039062 L 5 5.0039062 L 15 5.0039062 L 15 3.0039062 L 5 3.0039062 z M 1 7.0039062 L 1 9.0039062 L 3 9.0039062 L 3 7.0039062 L 1 7.0039062 z M 5 7.0039062 L 5 9.0039062 L 15 9.0039062 L 15 7.0039062 L 5 7.0039062 z M 1 11.003906 L 1 13.003906 L 3 13.003906 L 3 11.003906 L 1 11.003906 z M 5 11.003906 L 5 13.003906 L 15 13.003906 L 15 11.003906 L 5 11.003906 z" transform="translate(3 3)"/>
</svg>

<svg height="22" viewBox="0 0 22 22" width="22" xmlns="http://www.w3.org/2000/svg">
  <path d="m1 3.0039062v2h2v-2zm4 0v2h10v-2zm-4 4v2h2v-2zm4 0v2h10v-2zm-4 3.9999998v2h2v-2zm4 0v2h10v-2z" fill="#444" transform="translate(3 3)"/>
</svg>
